X: 9078
T: Dá Mbeadh Airgead Agam
R: waltz
M: 3/4
K: Dmajor
FE|D3E FA|BcBA FG|ABAF dc|B2B,2A,B,|DCDE FA|
B=cBA dB|AFED A,B,|D3||AB|d3f ed|B2B2dc|
B3=c BF|A4Bc|d3f ed|B=cBA dB|AFED A,B,|D3||

